X:1
T:It's A Hap-Hap- Happy Day
T:I'ts A Hap-Hap-Happy Day
T:Sammy Timberg,Winston Sharples
T:Al.J.Neiburg
C:Sammy Timberg,Winston Sharples
Z:All Rights Reserved
L:1/8
M:4/4
K:C
V:1 treble 
%%MIDI program 40
%%MIDI control 7 100
%%MIDI control 10 64
V:1
 z4 z2 cB |"C" A2 G2 E2"G7" F2 |"C" G6 cB | AAGG EE"G7"FF |"C" G4- G3 ^G |"Dm7" A2 A2"G7" D3 ^F | %6
w: I'ts a|Hap- Hap Hap- py|Day Too- dle|oo- dle, oo- dle, oo- dle, oo- dle,|ay * For|you and me, for|
"C" G2 G2"Am" C2 FG |"Dm" A2"A7" G2"Dm" F2"D9" E2 |"G7" D6 cB |"C" A2 G2 E2"G7" F2 |"C" G6 cB | %11
w: us and we, all the|clouds have roll'd a-|way. It's a|hap- hap- hap- py|day Too- dle,|
 AAGG EE"G7"FF |"C" G4- G3 ^G |"Dm7" A2 A2"G7" D2 EF |"C" G2 G2"Am" C2 DE | %15
w: oo- dle, oo- dle, oo- dle, oo- dle,|ay. * The|sun- shine's bright and the|world's all right, It's a|
"Dm" F2 D2"Dm7" C2"G7" B,2 |"C" C8 |"F" F3 F"Bdim" E3 E |"Gm7" D2"C7" E4 C2 |"F" A3 A"C7" G2 G2 | %20
w: hap- hap- hap- py|day.|Four and twen- ty|sun- beams are|dan- ing 'round my|
"F" F8 |"G" G4"C#dim" ^F3 F |"Am7" E2 E2"D7" ^F2 D2 |"G7" G z z A F2 E2 | D6 cB | %25
w: face.|Four score and|twen- ty more are|danc- ing ev- 'ry|place. It's a|
"C" A2 G2 E2"G7" F2 |"C" G6 cB | AAGG EE"G7"FF |"C" G4- G3 ^G |"Dm7" A2 A2"G7" D2 EF | %30
w: hap- hap- hap- py|day, Too- dle|oo- dle, oo- dle, oo- dle, oo- dle-|ay * You|can't go wrong if you|
"C" G2 G2"Am" C2 ^FG |"D9" A2 A2"G7" B2 B2 |"D9" A2 A2"G7" B2 B2 |"C" c6 z2 |] %34
w: sing a song, It's a|Hap- Hap- Hap- py|Hap- Hap- Hap- py|Day.|

